X:1
T:Coming to the Garden
T:Coming to the Garden
T:William A. Post
T:Eliza Edmunds Hewitt, 1909
T:Public Domain Courtesy of the Cyber Hymnal™
T:Public Domain Courtesy of the Cyber Hymnal™
C:William A. Post
Z:Public Domain
Z:Courtesy of the Cyber Hymnal™
%%score ( 1 2 ) ( 3 4 )
L:1/8
Q:1/4=90
M:4/4
K:Ab
V:1 treble 
V:2 treble 
V:3 bass 
V:4 bass 
V:1
 [Ec]>[Ec] [CA]>[CA] [CE]>[CE] [CA]>[EG] | [EG]>[DF] [DF]>[DF] [DF]4 | %2
w: 1.~Com- ing to the gar- den at the|break- ing of the day,|
w: 2.~Com- ing to the gar- den, weep- ing|Ma- ry sought her Lord,|
w: 3.~Com- ing to the gar- den, when this|earth- ly life shall end,|
 [Dd]>[Dd] [DB]>[DB] [DG]>[DG] [DG]>[DG] | [DF]>[CE] [CE]>[CE] [CE]4 | %4
w: Lov- ing friends of Je- sus found the|stone was rolled a- way,|
w: And His ten- der greet- ing was her|won- der- ful re- ward;|
w: When to bowers of glo- ry all His|ran- somed shall as- cend,|
 [Ec]>[Ec] [CA]>[CA] [CE]>[CE] [CA]>[EG] | [EG]>[DF] [DF]>[DF] [DF]4 | %6
w: Know- ing not the mean- ing of the|Sav- ior’s emp- ty tomb,|
w: So we come to meet Him in our|Fa- ther’s house of prayer,|
w: We shall sing to- ge- ther in the|glad, un- fad- ing light,|
 [DG]>[DG] [CA]>[CA] [EB]>[EB] [Ec]>[Fd] | !>![Ec]2 !>![DB]2 !>![CA]4 || %8
w: See- ing not the les- son in the|lil- y’s bloom.|
w: Glow- ing now with beau- ty, like a|gar- den fair.|
w: Praise to our Re- deem- er, hon- or,|power and might.|
"^Refrain" [EAce]2 [EAc]>c [CEA]2 [CE]>[CE] | F>G A>B [Cc]2 c>d | %10
w: ||
w: Bloom, lil- ies, bloom, by the|ris- en Sav- ior’s tomb, He is|
w: ||
 [Ec]>[DB] [DB]>[DB] [DB]>[Ec] [DB]>[Ec] | [DB]>[CA] [CA]>[CA] [CA]>[CA] !>![C_GA]>!>![CGA] | %12
w: ||
w: ris- en, hal- le- lu- jah! Hal- le-|lu- jah, hal- le- lu- jah! Light im-|
w: ||
 !>![DFB]2 !>![DFA]2 !>![=B,=DG]2 !>![B,DF]2 | !>![CE]2 !>![CEA]4 !>![CA]>!>![CB] | %14
w: ||
w: mor- tal, hal- le-|lu- jah, scat- ters|
w: ||
 !>![Ec]4 !>![DB]4 | A6 z2 |] %16
w: ||
w: all the|gloom.|
w: ||
V:2
 x8 | x8 | x8 | x8 | x8 | x8 | x8 | x8 || x8 | D2 D2 x/ E2 x3/2 | x8 | x8 | x8 | x8 | x8 | %15
 (!>!C2 D2 C2) x2 |] %16
V:3
 [A,,A,]>[A,,A,] [A,,A,]>[A,,A,] [A,,A,]>[A,,A,] [A,,A,]>[A,,A,] | %1
 [D,A,]>[D,A,] [D,A,]>[D,A,] [D,A,]4 | [E,G,]>[E,G,] [E,G,]>[E,G,] [E,B,]>[E,B,] [E,G,]>[E,G,] | %3
 [A,,A,]>[A,,A,] [A,,A,]>[A,,A,] [A,,A,]4 | %4
 [A,,A,]>[A,,A,] [A,,A,]>[A,,A,] [A,,A,]>[A,,A,] [A,,A,]>[A,,A,] | %5
 [D,A,]>[D,A,] [D,A,]>[D,A,] [D,B,]4 | [E,B,]>[E,B,] [E,A,]>[E,A,] [E,G,]>[E,G,] A,>[D,A,] | %7
 [E,A,]2 [E,G,]2 [A,,A,]4 || [A,,E,A,]2 [A,,E,A,]2 [A,,E,A,]2 [A,,E,A,]2 | %9
 [A,,F,A,]2 [A,,F,A,]2 [A,,E,A,]2 [A,,E,A,]2 | [E,,E,]2 [G,B,]2 [E,,E,]2 [G,B,]2 | %11
 [A,,E,A,]2 [A,,E,A,]2 [A,,E,A,]2 [A,,E,A,]2 | [D,,D,]2 [D,,D,]2 [=D,,=D,]2 [D,,D,]2 | %13
 [E,,E,]2 [E,,E,]4 [F,,F,]2 | [E,,E,]2 [A,C]2 [E,,E,]2 [G,B,]2 | (A,2 F,2 E,2) z2 |] %16
V:4
 x8 | x8 | x8 | x8 | x8 | x8 | x6 A,3/2 x/ | x8 || x8 | x8 | x8 | x8 | x8 | x8 | x8 | A,,6 x2 |] %16

